X:1
T:Lord Ronald
M:3/4
L:1/8
K:C
 C C3/2 D/2| E4 GG| E D2 z C2| E E3 G2| G2 z C C3/2 D/2| E4| EG| E D2 z C2|\
 E3 D D2| D2 z2 C2| E2 E2 G2| E D2 z CC| C2 C2 C2| c z c2 d2| e3 dd-c|\
 c A2 z G2| E G2 E- D2| C2 z||
